src/main/resources/icons/RustIcons/enumVariant.svg

<svg width="16" height="16" viewBox="0 0 16 16" fill="none" xmlns="http://www.w3.org/2000/svg"><rect id="frame" width="16" height="16" fill="none"/><rect x="1" y="1" width="14" height="14" rx="3" fill="#62B543" fill-opacity=".6"/><path fill-rule="evenodd" clip-rule="evenodd" d="M10 11H6V5h4v1H7v1h2v1H7v2h3v1z" fill="#231F20" fill-opacity=".7"/></svg>

<svg width="16" height="16" viewBox="0 0 16 16" fill="none" xmlns="http://www.w3.org/2000/svg">
<rect x="1" y="1" width="14" height="14" rx="3" fill="#62B543" fill-opacity="0.6"/>
<path fill-rule="evenodd" clip-rule="evenodd" d="M10 11H6V5H10V6H7V7H9V8H7V10H10V11Z" fill="#231F20" fill-opacity="0.7"/>
</svg>
